lib/healthicons/icons/outline/shapes/triangle_small.svg

<svg fill="none" height="48" viewBox="0 0 48 48" width="48" xmlns="http://www.w3.org/2000/svg"><path clip-rule="evenodd" d="m24 11c.3788 0 .725.214.8944.5528l12 24c.155.31.1385.6781-.0437.9729-.1823.2948-.5041.4743-.8507.4743h-24c-.3466 0-.6684-.1795-.8506-.4743-.1823-.2948-.1988-.6629-.0438-.9729l12-24c.1694-.3388.5156-.5528.8944-.5528zm0 3.2361-10.382 20.7639h20.764z" fill="#333" fill-rule="evenodd"/></svg>

<svg width="48" height="48" viewBox="0 0 48 48" fill="none" xmlns="http://www.w3.org/2000/svg">
<path fill-rule="evenodd" clip-rule="evenodd" d="M24 11C24.3788 11 24.725 11.214 24.8944 11.5528L36.8944 35.5528C37.0494 35.8628 37.0329 36.2309 36.8507 36.5257C36.6684 36.8205 36.3466 37 36 37H12C11.6534 37 11.3316 36.8205 11.1494 36.5257C10.9671 36.2309 10.9506 35.8628 11.1056 35.5528L23.1056 11.5528C23.275 11.214 23.6212 11 24 11ZM24 14.2361L13.618 35H34.382L24 14.2361Z" fill="#333333"/>
</svg>
